out/images/phone.svg

<svg fill="none" height="16" viewBox="0 0 16 16" width="16" xmlns="http://www.w3.org/2000/svg"><path d="m13.5738 15.4537h-.2012c-2.2673-.2466-4.44563-1.0197-6.36127-2.2575-1.77959-1.1334-3.29054-2.6413-4.4275-4.41871-1.24061-1.92063-2.013797-4.1053-2.257502-6.37875-.02786-.27116-.00035-.54516.080877-.80537.081217-.26021.214453-.50121.391623-.708376.172323-.209939.385022-.383163.625502-.509416.24048-.126245.50384-.202957.7745-.225584h2.275c.49273.000499.96904.177161 1.34291.498085.37388.320924.62068.764961.69584 1.251911.08312.62552.2387 1.23924.46375 1.82875.13685.37046.16511.77231.08146 1.15828-.08374.38596-.27589.74-.55396 1.02047l-.53375.53375c.84035 1.32667 1.96761 2.44798 3.29875 3.28125l.53375-.525c.28042-.27808.63452-.47023 1.02052-.55397.386-.08365.7878-.05538 1.1582.08147.5902.22295 1.2037.37852 1.8288.46375.4952.07446.9463.32707 1.2686.7105.3221.38346.4934.87136.4814 1.37196v2.1c0 .5462-.2164 1.0702-.6018 1.4572-.3853.387-.9083.6056-1.4545.6078zm-9.09997-13.99996h-2.09125c-.10268.00679-.20292.03433-.29466.08095s-.17307.11136-.23909.1903c-.06424.07395-.11288.16014-.14295.25337s-.04098.19158-.03205.28913c.21218 2.06219.90442 4.046 2.02125 5.7925 1.02956 1.61586 2.4004 2.98671 4.01625 4.01621 1.74764 1.1286 3.73367 1.8356 5.80127 2.065.1075.0061.2151-.0102.316-.0478.1009-.0377.193-.0959.2702-.1709.1393-.1428.2178-.3342.2188-.5338v-2.0912c.0039-.1841-.0598-.3633-.1791-.5037-.1194-.1402-.2861-.2319-.4684-.2576-.7229-.0972-1.4329-.2732-2.1175-.525-.1349-.05036-.2812-.06156-.4222-.03208-.141.02938-.2706.09818-.3741.19838l-.87497.875c-.10246.0999-.2345.1641-.37634.183-.14192.0189-.28604-.0085-.41116-.078-1.86708-1.0551-3.41253-2.59745-4.47125-4.46251-.07247-.12425-.10148-.26915-.08247-.41178.01901-.14254.08497-.27477.18747-.37572l.875-.875c.10034-.10148.16937-.22968.19885-.36932.02948-.13963.01817-.2848-.0326-.41818-.25271-.68426-.42878-1.39443-.525-2.1175-.02171-.18788-.11259-.36097-.25493-.48552-.14235-.12455-.32596-.19165-.51507-.18823z" fill="#000"/></svg>

<svg width="16" height="16" viewBox="0 0 16 16" fill="none" xmlns="http://www.w3.org/2000/svg">
<path d="M13.5738 15.4537H13.3726C11.1053 15.2071 8.92697 14.434 7.01133 13.1962C5.23174 12.0628 3.72079 10.5549 2.58383 8.77749C1.34322 6.85686 0.570033 4.67219 0.326328 2.39874C0.298468 2.12758 0.325978 1.85358 0.407205 1.59337C0.488422 1.33316 0.621658 1.09216 0.798828 0.884994C0.971151 0.675055 1.18385 0.501831 1.42433 0.375578C1.66481 0.249333 1.92817 0.172621 2.19883 0.149994H4.47383C4.96656 0.150493 5.44287 0.327155 5.81674 0.648079C6.19062 0.969003 6.43742 1.41304 6.51258 1.89999C6.5957 2.52551 6.75128 3.13923 6.97633 3.72874C7.11318 4.0992 7.14144 4.50105 7.05779 4.88702C6.97405 5.27298 6.7819 5.62702 6.50383 5.90749L5.97008 6.44124C6.81043 7.76791 7.93769 8.88922 9.26883 9.72249L9.80258 9.19749C10.083 8.91941 10.4371 8.72726 10.8231 8.64352C11.2091 8.55987 11.6109 8.58814 11.9813 8.72499C12.5715 8.94794 13.185 9.10351 13.8101 9.18874C14.3053 9.2632 14.7564 9.51581 15.0787 9.89924C15.4008 10.2827 15.5721 10.7706 15.5601 11.2712V13.3712C15.5601 13.9174 15.3437 14.4414 14.9583 14.8284C14.573 15.2154 14.05 15.434 13.5038 15.4362L13.5738 15.4537ZM4.47383 1.45374H2.38258C2.2799 1.46053 2.17966 1.48807 2.08792 1.53469C1.99618 1.58131 1.91485 1.64605 1.84883 1.72499C1.78459 1.79894 1.73595 1.88513 1.70588 1.97836C1.67581 2.07159 1.6649 2.16994 1.67383 2.26749C1.88601 4.32968 2.57825 6.31349 3.69508 8.05999C4.72464 9.67585 6.09548 11.0467 7.71133 12.0762C9.45897 13.2048 11.445 13.9118 13.5126 14.1412C13.6201 14.1473 13.7277 14.131 13.8286 14.0934C13.9295 14.0557 14.0216 13.9975 14.0988 13.9225C14.2381 13.7797 14.3166 13.5883 14.3176 13.3887V11.2975C14.3215 11.1134 14.2578 10.9342 14.1385 10.7938C14.0191 10.6536 13.8524 10.5619 13.6701 10.5362C12.9472 10.439 12.2372 10.263 11.5526 10.0112C11.4177 9.96084 11.2714 9.94964 11.1304 9.97912C10.9894 10.0085 10.8598 10.0773 10.7563 10.1775L9.88133 11.0525C9.77887 11.1524 9.64683 11.2166 9.50499 11.2355C9.36307 11.2544 9.21895 11.227 9.09383 11.1575C7.22675 10.1024 5.6813 8.56005 4.62258 6.69499C4.55011 6.57074 4.5211 6.42584 4.54011 6.28321C4.55912 6.14067 4.62508 6.00844 4.72758 5.90749L5.60258 5.03249C5.70292 4.93101 5.77195 4.80281 5.80143 4.66317C5.83091 4.52354 5.8196 4.37837 5.76883 4.24499C5.51612 3.56073 5.34005 2.85056 5.24383 2.12749C5.22212 1.93961 5.13124 1.76652 4.9889 1.64197C4.84655 1.51742 4.66294 1.45032 4.47383 1.45374Z" fill="black"/>
</svg>
